X:1
T:Title
%%score { ( 1 4 ) | ( 2 3 ) }
L:1/8
M:4/4
K:D
V:1 treble nm="Grand Piano"
V:4 treble 
V:2 bass 
V:3 bass 
V:1
 z4 z2[Q:1/4=100] D>E | F2 F>F A2 A>A | B2 d2 [FA]2 D>[DE] | [DF]2 [DF]>[DF] [CA]2 [CA]>[CA] | %4
 D6 D>E | F2 F>F A2 A>A | B2 d2 [FA]2 D>[DE] | [DF]2 [DF]>[DF] [CA]2 [CA]>[CA] | D6 [FA]>[FA] | %9
 [GB]2 [GB]>[GB] [Gc]2 [Gc]>[GB] | [FA]4 [Fd]2 [FA]>[FA] | [GB]2 [GB]>[GB] [Gc]2 [Gc]>[GB] | %12
 [FA]6 D>E | F2 F>F A2 A>A | B2 d2 [FA]2 D>[DE] | [DF]2 [DF]>[DF] [CA]2 [CA]>[CA] |[M:3/4] [F,D]6 | %17
[M:6/8] [DFA][DFd][EGc]- [EGc][EGB][EGc]- | [EGc][CGB][FB]- [FB][FA][FB]- | %19
 [FB][FA][FA] [EG][^DF][EG] |[M:2/4] [FA][EG] [DF]2- |[M:1/4] [DF]2 | [FA][Fd] |[M:3/4] c2 B c2 B | %24
[M:13/16] [DB]-<[DB]A[Fd]3/2D>E |[M:4/4] [DF]2 [DF]>[DF] [CA]2 [CA]>[CA] |[M:3/4] D6 |] %27
V:2
 z4 z2 [D,F,A,]>[D,G,A,] | [D,A,D]2 [D,A,D]>[D,A,D] [D,F,D]2 [D,F,D]>[D,F,D] | %2
 [G,D]2 [B,G]2 [D,D]2 [D,F,]>[B,,G,] | [A,,A,]2 [A,,A,]>[A,,A,] [A,,A,]2 [A,,A,]>[A,,A,] | %4
 [D,F,]6 [D,F,A,]>[D,G,A,] | [D,A,D]2 [D,A,D]>[D,A,D] [D,F,D]2 [D,F,D]>[D,F,D] | %6
 [G,D]2 [B,G]2 [D,D]2 [D,F,]>[B,,G,] | [A,,A,]2 [A,,A,]>[A,,A,] [A,,A,]2 [A,,A,]>[A,,A,] | %8
 [D,F,]6 [D,A,]>[D,A,] | [A,,A,]2 [A,,A,]>[A,,A,] [A,,A,]2 [A,,A,]>[A,,A,] | %10
 [D,A,]4 [D,A,]2 [D,A,]>[D,A,] | [A,,A,]2 [A,,A,]>[A,,A,] [A,,A,]2 [A,,A,]>[A,,A,] | %12
 [D,A,]6 [D,F,A,]>[D,G,] | [D,A,D]2 [D,A,D]>[D,A,D] [D,F,D]2 [D,F,D]>[D,F,D] | %14
 [G,D]2 [B,G]2 [D,D]2 [D,F,]>[B,,G,] | [A,,A,]2 [A,,A,]>[A,,A,] [A,,A,]2 [A,,A,]>[A,,A,] | %16
[M:3/4] D,6 |[M:6/8] D,D,A,- A,A,A,,- | A,,A,,[D,D]- [D,D][D,D][D,D]- | %19
 [D,D][D,A,][A,,A,] [A,,A,][A,,A,][A,,A,] |[M:2/4] [A,,A,][A,,A,] [D,A,]2- |[M:1/4] [D,A,]2 | %22
 [D,D][D,D] |[M:3/4][K:treble] [A,EG]2 [A,DG] [A,EG]2 [A,CG] | %24
[M:13/16][K:bass] z/ z/ z A,[B,,B,]3/2[B,,F,]>[B,,G,] | %25
[M:4/4] [A,,A,]2 [A,,A,]>[A,,A,] [A,,A,]2 [A,,A,]>[A,,A,] |[M:3/4] [D,F,]6 |] %27
V:3
 x8 | x8 | D,4 z4 | x8 | x8 | x8 | D,4 z4 | x8 | x8 | x8 | x8 | x8 | x8 | x8 | D,4 z4 | x8 | %16
[M:3/4] x6 |[M:6/8] x6 | x6 | x6 |[M:2/4] x4 |[M:1/4] x2 | x2 |[M:3/4][K:treble] x6 | %24
[M:13/16][K:bass] D,/-D,/-D,-<D, z/ z/ z/ z/ z/ z |[M:4/4] x8 |[M:3/4] x6 |] %27
V:4
 x8 | x8 | x8 | x8 | x8 | x8 | x8 | x8 | x8 | x8 | x8 | x8 | x8 | x8 | x8 | x8 |[M:3/4] x6 | %17
[M:6/8] x6 | x6 | x6 |[M:2/4] x4 |[M:1/4] x2 | x2 |[M:3/4] x6 | %24
[M:13/16] F/-F/-F-<F z/ z/ z/ z/ z/ z |[M:4/4] x8 |[M:3/4] x6 |] %27

